X:165
T: Dui huadeng, 1)
N: C1661A
O: China, Henan, Zhenping
S: IV, 155]
R: Wuge, Yayou diao]
M: 2/4
L: 1/16
K: G
d3dd2B2 | d2d2g4 | g4e2d2 | d3BA4
d2ege2d2 | d2B2A2B2 | GAB2A4
d3dd2d2 | d2g2G4
G4G4 | G2GED4 | D2G2D2G2 | EDEGD4

